dist/icons/svgs/turkish-lira-solid.svg

<svg xmlns="http://www.w3.org/2000/svg" width="24" height="24" fill="currentcolor" class="icon-turkish-lira-solid" viewBox="0 0 24 24">
  <path d="M8.75009 3.25C9.41415 3.25 10.0001 3.83594 10.0001 4.5V5.90625L14.6485 4.57812C15.3126 4.38281 15.9767 4.77344 16.172 5.4375C16.3673 6.10156 15.9767 6.76562 15.3126 6.96094L10.0001 8.48438V9.65625L14.6485 8.32812C15.3126 8.13281 15.9767 8.52344 16.172 9.1875C16.3673 9.85156 15.9767 10.5156 15.3126 10.7109L10.0001 12.2344V18.25H12.461C15.1563 18.25 17.3438 16.1797 17.461 13.5234L17.5001 13.2109C17.5001 12.5078 18.086 12 18.7892 12C19.4923 12.0391 20.0001 12.625 20.0001 13.3281L19.961 13.6406C19.7657 17.625 16.4845 20.75 12.461 20.75H8.75009C8.04696 20.75 7.50009 20.2031 7.50009 19.5V12.9766L6.56259 13.2109C5.89853 13.4062 5.23446 13.0156 5.03915 12.3516C4.84384 11.6875 5.23446 10.9844 5.89853 10.8281L7.50009 10.3594V9.22656L6.56259 9.46094C5.89853 9.65625 5.23446 9.26562 5.03915 8.60156C4.84384 7.9375 5.23446 7.23438 5.89853 7.07812L7.50009 6.60938V4.5C7.50009 3.83594 8.04696 3.25 8.75009 3.25Z"/>
</svg>

<svg xmlns="http://www.w3.org/2000/svg" width="24" height="24" fill="currentColor" class="icon-turkish-lira-solid" viewBox="0 0 24 24">
  <path d="M8.75 3.25c.664 0 1.25.586 1.25 1.25v1.406l4.649-1.328c.664-.195 1.328.195 1.523.86.195.664-.195 1.328-.86 1.523L10 8.484v1.172l4.649-1.328c.664-.195 1.328.195 1.523.86.195.664-.195 1.328-.86 1.523L10 12.234v6.016h2.461c2.695 0 4.883-2.07 5-4.727l.04-.312c0-.703.585-1.211 1.288-1.211.703.04 1.211.625 1.211 1.328l-.039.313c-.195 3.984-3.476 7.109-7.5 7.109h-3.71c-.704 0-1.25-.547-1.25-1.25v-6.523l-.938.234c-.664.195-1.329-.195-1.524-.86-.195-.664.195-1.367.86-1.523L7.5 10.36V9.227l-.937.234c-.664.195-1.329-.195-1.524-.86-.195-.664.195-1.367.86-1.523L7.5 6.61V4.5c0-.664.547-1.25 1.25-1.25"/>
</svg>
